X:1
T:Mrs. Kinloch's -- Reel
R:reel
B:Ryan's Mammoth Collection
N:360
O:SCOTCH
Z:Contributed by Ray Davies,  ray:davies99.freeserve.co.uk
M:C|
L:1/8
K:G
ub|\
vg2dc BAGF | GBdB cAAd | {f}g2dg Bgdg | egfa bggb |
g2dc BAGF | GBdB cAAd | {f}g2dg Bgdg | egfa bgg|]
u(g/a/)|\
vbgfg e2dc | BdgB cAAc | uBddg e2cg | vfadf ggga |
vbgfg e2dc | BdgB cAAc | vBddg e2ca | fadf ggg|]
